packages/katcn/src/icons/svg/noFlash-solid.svg

<svg width="24" height="24" viewBox="0 0 24 24" fill="none" xmlns="http://www.w3.org/2000/svg">
<path d="M16.961 13.7284C17.1445 13.9095 17.3279 14 17.603 14C17.603 14 17.603 14 17.6947 14C17.9698 14 18.1532 13.819 18.3366 13.6379L19.7122 11.9181C19.7122 11.9181 19.7122 11.9181 19.7122 11.8276C20.079 11.2844 20.079 10.5603 19.8039 10.0172C19.5288 9.47408 18.9785 9.112 18.3366 9.112H14.7601V2.68519C14.7601 1.87052 14.3016 1.23689 13.568 1.05585C12.926 0.874817 12.1924 1.14637 11.8256 1.68948L9.16611 4.94815C8.891 5.31022 8.9827 5.85333 9.25782 6.12489L16.961 13.7284Z" fill="black"/>
<path d="M22.725 21.4417L16.4917 15.2083L12.6417 11.3583L8.79167 7.50833L2.55833 1.275C2.19167 0.908333 1.64167 0.908333 1.275 1.275C0.908333 1.64167 0.908333 2.19167 1.275 2.55833L6.95833 8.24167L4.025 11.9083C3.65833 12.4583 3.65833 13.1917 3.93333 13.7417C4.20833 14.2917 4.75833 14.6583 5.4 14.6583H8.975V21.2583C8.975 22.0833 9.43333 22.725 10.1667 22.9083C10.35 23 10.4417 23 10.625 23C11.175 23 11.6333 22.725 11.9083 22.3583L15.9417 17.225L21.4417 22.725C21.625 22.9083 21.9 23 22.0833 23C22.2667 23 22.5417 22.9083 22.725 22.725C23.0917 22.3583 23.0917 21.8083 22.725 21.4417Z" fill="black"/>
</svg>

<svg xmlns="http://www.w3.org/2000/svg" fill="none" viewBox="0 0 24 24"><path fill="#000" d="M16.961 13.728a.84.84 0 0 0 .642.272h.092c.275 0 .458-.181.642-.362l1.375-1.72v-.09c.367-.544.367-1.268.092-1.81a1.64 1.64 0 0 0-1.467-.906H14.76V2.685c0-.814-.458-1.448-1.192-1.63a1.62 1.62 0 0 0-1.742.634l-2.66 3.26c-.275.361-.183.904.092 1.176zm5.764 7.714-6.233-6.234-3.85-3.85-3.85-3.85-6.234-6.233a.886.886 0 0 0-1.283 0 .886.886 0 0 0 0 1.283l5.683 5.684-2.933 3.666c-.367.55-.367 1.284-.092 1.834s.825.916 1.467.916h3.575v6.6c0 .825.458 1.467 1.192 1.65.183.092.275.092.458.092.55 0 1.008-.275 1.283-.642l4.034-5.133 5.5 5.5a1 1 0 0 0 .641.275 1 1 0 0 0 .642-.275.886.886 0 0 0 0-1.283"/></svg>
